X:4987
T:Paidin O'Rafferty
O:england
R:jig
S:J\"orgen Fischer
H:Different version in D, see #62
M:6/8
K:G
BDD EDD|cBA GED|BDD EDD|~G3 GED|BDD EDD|cBA GED|B/^c/dB =cBA|GAG GED||
GBB G3|GBB cBA|GBB GAA|GAG GED|GBB GAA|GAB cBA|B/^c/dB =cBA|GAG GED||
dBd efg|ded dBG|dBd efg|~G3 GED|dBd efg|ded def|gfe dBG|~A3 GED||
JB2G ~A2G|JB2G AGE|JB2G AGE|~G3 GED|BGG AGG|BGG AGG|BdB cBA|GAG GED||


